assets/1. F-P/Keycap 18/Color/Keycap.9-color.svg

<svg width="100%" height="100%" viewBox="0 0 32 32" fill="none" xmlns="http://www.w3.org/2000/svg">
<g filter="url(#filter0_ii_18590_3386)">
<rect x="1.65088" y="1.8125" width="27.875" height="27.875" rx="3.6" fill="url(#paint0_linear_18590_3386)"/>
<rect x="1.65088" y="1.8125" width="27.875" height="27.875" rx="3.6" fill="url(#paint1_radial_18590_3386)"/>
</g>
<g filter="url(#filter1_f_18590_3386)">
<path d="M27.8384 4.3125V27.1875" stroke="url(#paint2_linear_18590_3386)" stroke-width="1.5" stroke-linecap="round"/>
</g>
<g filter="url(#filter2_f_18590_3386)">
<path d="M5.11475 3.625H26.896" stroke="url(#paint3_linear_18590_3386)" stroke-width="1.5" stroke-linecap="round"/>
</g>
<g filter="url(#filter3_f_18590_3386)">
<path d="M20.3045 15.2143C20.306 15.2098 20.3077 15.2054 20.3098 15.2011C20.6402 14.5137 20.8253 13.7433 20.8253 12.9296C20.8253 10.0301 18.4748 7.67957 15.5753 7.67957C12.6758 7.67957 10.3253 10.0301 10.3253 12.9296C10.3253 15.4132 12.0499 17.494 14.3669 18.0398C14.4343 18.0557 14.4678 18.1329 14.4316 18.1919L12.6146 21.1555C12.1095 21.9794 12.3679 23.0569 13.1919 23.5621C14.0158 24.0673 15.0933 23.8089 15.5985 22.9849L20.1297 15.5943C20.2045 15.4723 20.2626 15.3448 20.3045 15.2143ZM17.3253 12.9296C17.3253 13.8961 16.5418 14.6796 15.5753 14.6796C14.6088 14.6796 13.8253 13.8961 13.8253 12.9296C13.8253 11.9631 14.6088 11.1796 15.5753 11.1796C16.5418 11.1796 17.3253 11.9631 17.3253 12.9296Z" fill="#579FFF"/>
</g>
<g filter="url(#filter4_ii_18590_3386)">
<path d="M20.3045 15.2143C20.306 15.2098 20.3077 15.2054 20.3098 15.2011C20.6402 14.5137 20.8253 13.7433 20.8253 12.9296C20.8253 10.0301 18.4748 7.67957 15.5753 7.67957C12.6758 7.67957 10.3253 10.0301 10.3253 12.9296C10.3253 15.4132 12.0499 17.494 14.3669 18.0398C14.4343 18.0557 14.4678 18.1329 14.4316 18.1919L12.6146 21.1555C12.1095 21.9794 12.3679 23.0569 13.1919 23.5621C14.0158 24.0673 15.0933 23.8089 15.5985 22.9849L20.1297 15.5943C20.2045 15.4723 20.2626 15.3448 20.3045 15.2143ZM17.3253 12.9296C17.3253 13.8961 16.5418 14.6796 15.5753 14.6796C14.6088 14.6796 13.8253 13.8961 13.8253 12.9296C13.8253 11.9631 14.6088 11.1796 15.5753 11.1796C16.5418 11.1796 17.3253 11.9631 17.3253 12.9296Z" fill="#FCF2FF"/>
</g>
<defs>
<filter id="filter0_ii_18590_3386" x="1.65088" y="0.8125" width="28.875" height="28.875" filterUnits="userSpaceOnUse" color-interpolation-filters="sRGB">
<feFlood flood-opacity="0" result="BackgroundImageFix"/>
<feBlend mode="normal" in="SourceGraphic" in2="BackgroundImageFix" result="shape"/>
<feColorMatrix in="SourceAlpha" type="matrix" values="0 0 0 0 0 0 0 0 0 0 0 0 0 0 0 0 0 0 127 0" result="hardAlpha"/>
<feOffset dx="1" dy="-1"/>
<feGaussianBlur stdDeviation="1.5"/>
<feComposite in2="hardAlpha" operator="arithmetic" k2="-1" k3="1"/>
<feColorMatrix type="matrix" values="0 0 0 0 0.188235 0 0 0 0 0.470588 0 0 0 0 0.843137 0 0 0 1 0"/>
<feBlend mode="normal" in2="shape" result="effect1_innerShadow_18590_3386"/>
<feColorMatrix in="SourceAlpha" type="matrix" values="0 0 0 0 0 0 0 0 0 0 0 0 0 0 0 0 0 0 127 0" result="hardAlpha"/>
<feOffset dy="-1"/>
<feGaussianBlur stdDeviation="1.5"/>
<feComposite in2="hardAlpha" operator="arithmetic" k2="-1" k3="1"/>
<feColorMatrix type="matrix" values="0 0 0 0 0.27451 0 0 0 0 0.34902 0 0 0 0 0.8 0 0 0 1 0"/>
<feBlend mode="normal" in2="effect1_innerShadow_18590_3386" result="effect2_innerShadow_18590_3386"/>
</filter>
<filter id="filter1_f_18590_3386" x="25.0884" y="1.5625" width="5.5" height="28.375" filterUnits="userSpaceOnUse" color-interpolation-filters="sRGB">
<feFlood flood-opacity="0" result="BackgroundImageFix"/>
<feBlend mode="normal" in="SourceGraphic" in2="BackgroundImageFix" result="shape"/>
<feGaussianBlur stdDeviation="1" result="effect1_foregroundBlur_18590_3386"/>
</filter>
<filter id="filter2_f_18590_3386" x="2.36475" y="0.875" width="27.2812" height="5.5" filterUnits="userSpaceOnUse" color-interpolation-filters="sRGB">
<feFlood flood-opacity="0" result="BackgroundImageFix"/>
<feBlend mode="normal" in="SourceGraphic" in2="BackgroundImageFix" result="shape"/>
<feGaussianBlur stdDeviation="1" result="effect1_foregroundBlur_18590_3386"/>
</filter>
<filter id="filter3_f_18590_3386" x="9.32532" y="6.67957" width="12.5" height="18.1409" filterUnits="userSpaceOnUse" color-interpolation-filters="sRGB">
<feFlood flood-opacity="0" result="BackgroundImageFix"/>
<feBlend mode="normal" in="SourceGraphic" in2="BackgroundImageFix" result="shape"/>
<feGaussianBlur stdDeviation="0.5" result="effect1_foregroundBlur_18590_3386"/>
</filter>
<filter id="filter4_ii_18590_3386" x="9.32532" y="7.27957" width="11.9" height="17.5409" filterUnits="userSpaceOnUse" color-interpolation-filters="sRGB">
<feFlood flood-opacity="0" result="BackgroundImageFix"/>
<feBlend mode="normal" in="SourceGraphic" in2="BackgroundImageFix" result="shape"/>
<feColorMatrix in="SourceAlpha" type="matrix" values="0 0 0 0 0 0 0 0 0 0 0 0 0 0 0 0 0 0 127 0" result="hardAlpha"/>
<feOffset dx="-1" dy="1"/>
<feGaussianBlur stdDeviation="1"/>
<feComposite in2="hardAlpha" operator="arithmetic" k2="-1" k3="1"/>
<feColorMatrix type="matrix" values="0 0 0 0 0.866667 0 0 0 0 0.819608 0 0 0 0 0.941176 0 0 0 1 0"/>
<feBlend mode="normal" in2="shape" result="effect1_innerShadow_18590_3386"/>
<feColorMatrix in="SourceAlpha" type="matrix" values="0 0 0 0 0 0 0 0 0 0 0 0 0 0 0 0 0 0 127 0" result="hardAlpha"/>
<feOffset dx="0.4" dy="-0.4"/>
<feGaussianBlur stdDeviation="0.5"/>
<feComposite in2="hardAlpha" operator="arithmetic" k2="-1" k3="1"/>
<feColorMatrix type="matrix" values="0 0 0 0 1 0 0 0 0 0.988235 0 0 0 0 1 0 0 0 1 0"/>
<feBlend mode="normal" in2="effect1_innerShadow_18590_3386" result="effect2_innerShadow_18590_3386"/>
</filter>
<linearGradient id="paint0_linear_18590_3386" x1="15.5884" y1="5.38701" x2="15.5884" y2="38.6397" gradientUnits="userSpaceOnUse">
<stop stop-color="#5CB7FF"/>
<stop offset="1" stop-color="#4878DD"/>
</linearGradient>
<radialGradient id="paint1_radial_18590_3386" cx="0" cy="0" r="1" gradientUnits="userSpaceOnUse" gradientTransform="translate(27.3071 3.90625) rotate(136.771) scale(2.14444 2.50466)">
<stop stop-color="#7BD7FF"/>
<stop offset="1" stop-color="#7BD7FF" stop-opacity="0"/>
</radialGradient>
<linearGradient id="paint2_linear_18590_3386" x1="28.3384" y1="4.3125" x2="28.3384" y2="27.1875" gradientUnits="userSpaceOnUse">
<stop stop-color="#7FD9FF"/>
<stop offset="1" stop-color="#639DF4"/>
</linearGradient>
<linearGradient id="paint3_linear_18590_3386" x1="28.0522" y1="3.87502" x2="2.521" y2="3.87502" gradientUnits="userSpaceOnUse">
<stop stop-color="#7DD8FF"/>
<stop offset="1" stop-color="#5DB6FF"/>
</linearGradient>
</defs>
</svg>

<svg width="100%" height="100%" viewBox="0 0 32 32" xmlns="http://www.w3.org/2000/svg"><g filter="url(#a)"><rect width="27.875" height="27.875" x="1.651" y="1.813" fill="url(#b)" rx="3.6"/><rect width="27.875" height="27.875" x="1.651" y="1.813" fill="url(#c)" rx="3.6"/></g><g filter="url(#d)"><path stroke="url(#e)" stroke-linecap="round" stroke-width="1.5" d="M27.838 4.313v22.875"/></g><g filter="url(#f)"><path stroke="url(#g)" stroke-linecap="round" stroke-width="1.5" d="M5.115 3.625h21.781"/></g><g filter="url(#h)"><path fill="#579FFF" d="m20.305 15.214.005-.013a5.25 5.25 0 1 0-5.943 2.839c.067.016.1.093.065.152l-1.817 2.964a1.75 1.75 0 0 0 2.983 1.829l4.532-7.39a1.8 1.8 0 0 0 .175-.38m-2.98-2.284a1.75 1.75 0 1 1-3.5 0 1.75 1.75 0 0 1 3.5 0"/></g><g filter="url(#i)"><path fill="#FCF2FF" d="m20.305 15.214.005-.013a5.25 5.25 0 1 0-5.943 2.839c.067.016.1.093.065.152l-1.817 2.964a1.75 1.75 0 0 0 2.983 1.829l4.532-7.39a1.8 1.8 0 0 0 .175-.38m-2.98-2.284a1.75 1.75 0 1 1-3.5 0 1.75 1.75 0 0 1 3.5 0"/></g><defs><filter id="a" width="28.875" height="28.875" x="1.651" y=".813" color-interpolation-filters="sRGB" filterUnits="userSpaceOnUse"><feFlood flood-opacity="0" result="BackgroundImageFix"/><feBlend in="SourceGraphic" in2="BackgroundImageFix" result="shape"/><feColorMatrix in="SourceAlpha" result="hardAlpha" values="0 0 0 0 0 0 0 0 0 0 0 0 0 0 0 0 0 0 127 0"/><feOffset dx="1" dy="-1"/><feGaussianBlur stdDeviation="1.5"/><feComposite in2="hardAlpha" k2="-1" k3="1" operator="arithmetic"/><feColorMatrix values="0 0 0 0 0.188235 0 0 0 0 0.470588 0 0 0 0 0.843137 0 0 0 1 0"/><feBlend in2="shape" result="effect1_innerShadow_18590_3386"/><feColorMatrix in="SourceAlpha" result="hardAlpha" values="0 0 0 0 0 0 0 0 0 0 0 0 0 0 0 0 0 0 127 0"/><feOffset dy="-1"/><feGaussianBlur stdDeviation="1.5"/><feComposite in2="hardAlpha" k2="-1" k3="1" operator="arithmetic"/><feColorMatrix values="0 0 0 0 0.27451 0 0 0 0 0.34902 0 0 0 0 0.8 0 0 0 1 0"/><feBlend in2="effect1_innerShadow_18590_3386" result="effect2_innerShadow_18590_3386"/></filter><filter id="d" width="5.5" height="28.375" x="25.088" y="1.563" color-interpolation-filters="sRGB" filterUnits="userSpaceOnUse"><feFlood flood-opacity="0" result="BackgroundImageFix"/><feBlend in="SourceGraphic" in2="BackgroundImageFix" result="shape"/><feGaussianBlur result="effect1_foregroundBlur_18590_3386" stdDeviation="1"/></filter><filter id="f" width="27.281" height="5.5" x="2.365" y=".875" color-interpolation-filters="sRGB" filterUnits="userSpaceOnUse"><feFlood flood-opacity="0" result="BackgroundImageFix"/><feBlend in="SourceGraphic" in2="BackgroundImageFix" result="shape"/><feGaussianBlur result="effect1_foregroundBlur_18590_3386" stdDeviation="1"/></filter><filter id="h" width="12.5" height="18.141" x="9.325" y="6.68" color-interpolation-filters="sRGB" filterUnits="userSpaceOnUse"><feFlood flood-opacity="0" result="BackgroundImageFix"/><feBlend in="SourceGraphic" in2="BackgroundImageFix" result="shape"/><feGaussianBlur result="effect1_foregroundBlur_18590_3386" stdDeviation=".5"/></filter><filter id="i" width="11.9" height="17.541" x="9.325" y="7.28" color-interpolation-filters="sRGB" filterUnits="userSpaceOnUse"><feFlood flood-opacity="0" result="BackgroundImageFix"/><feBlend in="SourceGraphic" in2="BackgroundImageFix" result="shape"/><feColorMatrix in="SourceAlpha" result="hardAlpha" values="0 0 0 0 0 0 0 0 0 0 0 0 0 0 0 0 0 0 127 0"/><feOffset dx="-1" dy="1"/><feGaussianBlur stdDeviation="1"/><feComposite in2="hardAlpha" k2="-1" k3="1" operator="arithmetic"/><feColorMatrix values="0 0 0 0 0.866667 0 0 0 0 0.819608 0 0 0 0 0.941176 0 0 0 1 0"/><feBlend in2="shape" result="effect1_innerShadow_18590_3386"/><feColorMatrix in="SourceAlpha" result="hardAlpha" values="0 0 0 0 0 0 0 0 0 0 0 0 0 0 0 0 0 0 127 0"/><feOffset dx=".4" dy="-.4"/><feGaussianBlur stdDeviation=".5"/><feComposite in2="hardAlpha" k2="-1" k3="1" operator="arithmetic"/><feColorMatrix values="0 0 0 0 1 0 0 0 0 0.988235 0 0 0 0 1 0 0 0 1 0"/><feBlend in2="effect1_innerShadow_18590_3386" result="effect2_innerShadow_18590_3386"/></filter><linearGradient id="b" x1="15.588" x2="15.588" y1="5.387" y2="38.64" gradientUnits="userSpaceOnUse"><stop stop-color="#5CB7FF"/><stop offset="1" stop-color="#4878DD"/></linearGradient><linearGradient id="e" x1="28.338" x2="28.338" y1="4.313" y2="27.188" gradientUnits="userSpaceOnUse"><stop stop-color="#7FD9FF"/><stop offset="1" stop-color="#639DF4"/></linearGradient><linearGradient id="g" x1="28.052" x2="2.521" y1="3.875" y2="3.875" gradientUnits="userSpaceOnUse"><stop stop-color="#7DD8FF"/><stop offset="1" stop-color="#5DB6FF"/></linearGradient><radialGradient id="c" cx="0" cy="0" r="1" gradientTransform="matrix(-1.56249 1.46876 -1.71548 -1.82495 27.307 3.906)" gradientUnits="userSpaceOnUse"><stop stop-color="#7BD7FF"/><stop offset="1" stop-color="#7BD7FF" stop-opacity="0"/></radialGradient></defs></svg>
